icons/ventilator_alt.svg

<svg width="48" height="48" viewBox="0 0 48 48" fill="none" xmlns="http://www.w3.org/2000/svg">
<path fill-rule="evenodd" clip-rule="evenodd" d="M18 26C18 24.6938 18.8348 23.5825 20 23.1707V20H15V6H33V20H28V23.1707C29.1652 23.5825 30 24.6938 30 26V26.1199C30.3192 26.1462 30.6667 26.2025 31.0112 26.3168C31.5641 26.5002 32.127 26.8397 32.5395 27.4427C32.9467 28.0378 33.1428 28.7953 33.1428 29.7021C33.1428 30.0631 33.308 30.3473 33.6767 30.5843C34.074 30.8396 34.6685 31 35.3214 31C35.9743 31 36.5688 30.8396 36.9661 30.5842C37.3348 30.3473 37.5 30.063 37.5 29.7021V18.8551C36.0543 18.4248 35 17.0855 35 15.5V11.5C35 9.567 36.567 8 38.5 8C40.433 8 42 9.567 42 11.5V15.5C42 17.0855 40.9458 18.4248 39.5 18.8551V29.7022C39.5 30.8731 38.8705 31.7378 38.0473 32.2668C37.2526 32.7775 36.2578 33 35.3214 33C34.385 33 33.3902 32.7775 32.5955 32.2668C31.7722 31.7378 31.1428 30.8731 31.1428 29.7021C31.1428 29.0771 31.0085 28.7468 30.8889 28.572C30.7746 28.405 30.6143 28.2923 30.3815 28.2151C30.2651 28.1765 30.1364 28.1489 29.9972 28.1304C29.9289 29.7268 28.6132 31 27 31H21C19.3431 31 18 29.6569 18 28H17.5C16.5416 28 15.7965 28.1292 15.3047 28.457C14.8983 28.728 14.5 29.2473 14.5 30.5C14.5 31.4829 14.1663 32.3104 13.5821 32.8946C13.0073 33.4694 12.2474 33.75 11.5 33.75C10.7527 33.75 9.99272 33.4694 9.41792 32.8946C8.83371 32.3104 8.50001 31.4829 8.5 30.5V22.8551C7.05426 22.4248 6 21.0855 6 19.5V15.5C6 13.567 7.567 12 9.5 12C11.433 12 13 13.567 13 15.5V19.5C13 21.0855 11.9457 22.4248 10.5 22.8551V30.5C10.5 31.0171 10.6663 31.3146 10.8321 31.4804C11.0073 31.6556 11.2474 31.75 11.5 31.75C11.7527 31.75 11.9927 31.6556 12.1679 31.4804C12.3337 31.3146 12.5 31.0171 12.5 30.5C12.5 28.7527 13.1018 27.522 14.1953 26.793C15.2035 26.1208 16.4584 26 17.5 26H18ZM24.6835 9.20703L22.2431 12.2856H17V8H31V18H17V14.2856H23.2099L24.3933 12.7928L26.6032 16.7554L29.3899 13.4285H31V11.4285H28.4562L26.9351 13.2444L24.6835 9.20703ZM11 19.5C11 20.3284 10.3284 21 9.5 21C8.67157 21 8 20.3284 8 19.5H11ZM9.5 14C10.3284 14 11 14.6716 11 15.5V17.5H8V15.5C8 14.6716 8.67157 14 9.5 14ZM26 28C26.5523 28 27 27.5523 27 27C27 26.4477 26.5523 26 26 26C25.4477 26 25 26.4477 25 27C25 27.5523 25.4477 28 26 28ZM23 27C23 27.5523 22.5523 28 22 28C21.4477 28 21 27.5523 21 27C21 26.4477 21.4477 26 22 26C22.5523 26 23 26.4477 23 27ZM38.5 10C39.3284 10 40 10.6716 40 11.5V15.5C40 16.3284 39.3284 17 38.5 17C37.6716 17 37 16.3284 37 15.5V11.5C37 10.6716 37.6716 10 38.5 10ZM22 23H26V20H22V23Z" fill="black"/>
<path d="M27 32C27.3506 32 27.6872 31.9398 28 31.8293V36H38V38H10V36H20V31.8293C20.3128 31.9398 20.6494 32 21 32H22V36H26V32H27Z" fill="black"/>
<path d="M14.5 42C15.3284 42 16 41.3284 16 40.5C16 39.6716 15.3284 39 14.5 39C13.6716 39 13 39.6716 13 40.5C13 41.3284 13.6716 42 14.5 42Z" fill="black"/>
<path d="M33.5 42C34.3284 42 35 41.3284 35 40.5C35 39.6716 34.3284 39 33.5 39C32.6716 39 32 39.6716 32 40.5C32 41.3284 32.6716 42 33.5 42Z" fill="black"/>
</svg>

<svg
  xmlns="http://www.w3.org/2000/svg"
  width="24"
  height="24"
  viewBox="0 0 24 24"
  fill="none"
  stroke="currentColor"
  stroke-width="2"
  stroke-linecap="round"
  stroke-linejoin="round"
>
  <path
    fill-rule="evenodd"
    d="M18 26c0-1.306.835-2.418 2-2.83V20h-5V6h18v14h-5v3.17c1.165.412 2 1.524 2 2.83v.12c.32.026.667.082 1.011.197.553.183 1.116.523 1.528 1.126.408.595.604 1.352.604 2.26 0 .36.165.644.534.881.397.256.992.416 1.644.416.653 0 1.248-.16 1.645-.416.369-.237.534-.521.534-.882V18.855A3.5 3.5 0 0 1 35 15.5v-4a3.5 3.5 0 1 1 7 0v4a3.5 3.5 0 0 1-2.5 3.355v10.847c0 1.171-.63 2.036-1.453 2.565-.794.51-1.79.733-2.726.733s-1.93-.222-2.725-.733c-.824-.53-1.453-1.394-1.453-2.565 0-.625-.134-.955-.254-1.13-.114-.167-.275-.28-.508-.357a2 2 0 0 0-.384-.085A3 3 0 0 1 27 31h-6a3 3 0 0 1-3-3h-.5c-.958 0-1.703.13-2.195.457-.407.271-.805.79-.805 2.043 0 .983-.334 1.81-.918 2.395a2.94 2.94 0 0 1-2.082.855c-.747 0-1.507-.28-2.082-.855-.584-.585-.918-1.412-.918-2.395v-7.645A3.5 3.5 0 0 1 6 19.5v-4a3.5 3.5 0 1 1 7 0v4a3.5 3.5 0 0 1-2.5 3.355V30.5c0 .517.166.815.332.98a.94.94 0 0 0 .668.27.94.94 0 0 0 .668-.27c.166-.165.332-.463.332-.98 0-1.747.602-2.978 1.695-3.707C15.203 26.121 16.458 26 17.5 26zm6.683-16.793-2.44 3.079H17V8h14v10H17v-3.714h6.21l1.183-1.493 2.21 3.962 2.787-3.326H31v-2h-2.544l-1.52 1.815zM11 19.5a1.5 1.5 0 0 1-3 0zM9.5 14a1.5 1.5 0 0 1 1.5 1.5v2H8v-2A1.5 1.5 0 0 1 9.5 14M26 28a1 1 0 1 0 0-2 1 1 0 0 0 0 2m-3-1a1 1 0 1 1-2 0 1 1 0 0 1 2 0m15.5-17a1.5 1.5 0 0 1 1.5 1.5v4a1.5 1.5 0 0 1-3 0v-4a1.5 1.5 0 0 1 1.5-1.5M22 23h4v-3h-4z"
    clip-rule="evenodd"
  />
  <path d="M27 32c.35 0 .687-.06 1-.17V36h10v2H10v-2h10v-4.17c.313.11.65.17 1 .17h1v4h4v-4z" />
  <path d="M14.5 42a1.5 1.5 0 1 0 0-3 1.5 1.5 0 0 0 0 3" />
  <path d="M33.5 42a1.5 1.5 0 1 0 0-3 1.5 1.5 0 0 0 0 3" />
</svg>
